projects/aurox-gsap/assets/images/logo_vert.svg

<?xml version="1.0" encoding="UTF-8"?>
<svg width="66px" height="58px" viewBox="0 0 66 58" version="1.1" xmlns="http://www.w3.org/2000/svg" xmlns:xlink="http://www.w3.org/1999/xlink">
    <!-- Generator: sketchtool 63.1 (101010) - https://sketch.com -->
    <title>5BC0FDF6-72A5-4AF8-9A81-4B9AEF728F6F</title>
    <desc>Created with sketchtool.</desc>
    <g id="Design" stroke="none" stroke-width="1" fill="none" fill-rule="evenodd">
        <g id="1.-Aurox-Landing-1366-preview" transform="translate(-143.000000, -40.000000)">
            <g id="Hero" transform="translate(143.000000, -654.000000)">
                <g id="Header">
                    <g id="Logo-/-vertical" transform="translate(0.000000, 694.000000)">
                        <g id="Logo">
                            <path d="M65.844002,0 C63.2963012,5.15719979 59.484406,7.99773372 54.4083164,8.52160181 L54.0959558,8.55078074 C50.3210034,8.86683459 47.4205418,9.75303095 45.3945711,11.2093698 C47.1760598,13.2703393 47.2174971,15.7888038 46.4311014,17.2867013 L46.3573557,17.4200211 L37.1303439,33.4865759 C36.7133668,34.2023957 36.1182269,34.7981139 35.4028123,35.2157859 C33.1679552,36.520536 30.3136452,35.8155531 28.9356338,33.6515406 L28.8374688,33.4906023 L19.5925689,17.4256526 C18.746593,15.9766125 18.8828681,13.4354137 20.6172296,11.3335447 C18.6584917,9.85798897 15.8392031,8.94275179 12.1603454,8.58790233 L11.7480462,8.55078074 C6.51571006,8.11270901 2.59969467,5.26244876 0,0 C3.07291648,2.79752587 6.27428348,4.61920545 9.60410099,5.46503874 C14.0446001,6.59300504 19.165728,4.71255821 25.5568062,8.34772566 C30.4346024,6.8435792 35.1387321,6.83840837 40.3048704,8.3388911 C46.6881201,4.71617107 51.8036709,6.59192064 56.239901,5.46503874 C59.5697185,4.61920545 62.7710855,2.79752587 65.844002,0 Z" id="Path" fill="#026CFF"></path>
                            <path d="M12.656,57 L13.424,54.696 L17.412,54.696 L18.192,57 L20.848,57 L17.072,46.328 L14.24,46.328 L10.208,57 L12.656,57 Z M16.767,52.792 L14.059,52.792 L15.402,48.761 L16.767,52.792 Z M25.9248135,57.24 C27.0661468,57.24 27.9674801,56.9733333 28.6288135,56.44 C29.2901468,55.9066667 29.6208135,55.064 29.6208135,53.912 L29.6208135,53.912 L29.6208135,48.904 L27.3808135,48.904 L27.3808135,53.72 C27.3808135,54.232 27.2688135,54.6133333 27.0448135,54.864 C26.8208135,55.1146667 26.4528135,55.24 25.9408135,55.24 C25.4394801,55.24 25.0741468,55.1146667 24.8448135,54.864 C24.6154801,54.6133333 24.5008135,54.232 24.5008135,53.72 L24.5008135,53.72 L24.5008135,48.904 L22.1168135,48.904 L22.1168135,53.912 C22.1168135,54.6906667 22.2768135,55.3226667 22.5968135,55.808 C22.9168135,56.2933333 23.3648135,56.6533333 23.9408135,56.888 C24.5168135,57.1226667 25.1781468,57.24 25.9248135,57.24 Z M34.1184199,57 L34.1184199,50.744 C34.2997533,50.712 34.5237533,50.6906667 34.7904199,50.68 C35.0570866,50.6693333 35.3397533,50.6666667 35.6384199,50.672 C35.9370866,50.6773333 36.2250866,50.6906667 36.5024199,50.712 C36.7797533,50.7333333 37.0090866,50.7653333 37.1904199,50.808 L37.1904199,50.808 L37.1904199,49.064 C37.0410866,48.9466667 36.8224199,48.8506667 36.5344199,48.776 C36.2464199,48.7013333 35.8517533,48.664 35.3504199,48.664 C34.8490866,48.664 34.3504199,48.7306667 33.8544199,48.864 C33.3584199,48.9973333 32.9184199,49.1466667 32.5344199,49.312 C32.1504199,49.4773333 31.8837533,49.624 31.7344199,49.752 L31.7344199,49.752 L31.7344199,57 L34.1184199,57 Z M41.9600342,57.24 C43.2933675,57.24 44.3173675,56.8746667 45.0320342,56.144 C45.7467008,55.4133333 46.1040342,54.3386667 46.1040342,52.92 C46.1040342,51.928 45.9467008,51.1173333 45.6320342,50.488 C45.3173675,49.8586667 44.8533675,49.392 44.2400342,49.088 C43.6267008,48.784 42.8667008,48.632 41.9600342,48.632 C40.6160342,48.632 39.5947008,48.9653333 38.8960342,49.632 C38.1973675,50.2986667 37.8480342,51.3946667 37.8480342,52.92 C37.8480342,54.3386667 38.1920342,55.4133333 38.8800342,56.144 C39.5680342,56.8746667 40.5947008,57.24 41.9600342,57.24 Z M41.9600342,55.336 C41.3627008,55.336 40.9227008,55.136 40.6400342,54.736 C40.3573675,54.336 40.2160342,53.7306667 40.2160342,52.92 C40.2160342,52.3333333 40.2773675,51.8666667 40.4000342,51.52 C40.5227008,51.1733333 40.7120342,50.92 40.9680342,50.76 C41.2240342,50.6 41.5547008,50.52 41.9600342,50.52 C42.3440342,50.52 42.6693675,50.5973333 42.9360342,50.752 C43.2027008,50.9066667 43.4027008,51.1573333 43.5360342,51.504 C43.6693675,51.8506667 43.7360342,52.3226667 43.7360342,52.92 C43.7360342,53.4426667 43.6693675,53.8826667 43.5360342,54.24 C43.4027008,54.5973333 43.2053675,54.8693333 42.9440342,55.056 C42.6827008,55.2426667 42.3547008,55.336 41.9600342,55.336 Z M49.14404,57 L50.78,54.606 L52.48804,57 L55.32004,57 L52.392,52.908 L55.44804,48.904 L52.92004,48.904 L51.26,51.324 L49.52804,48.904 L46.71204,48.904 L49.661,53.037 L46.63204,57 L49.14404,57 Z" id="Aurox" fill="#001C55"></path>
                        </g>
                    </g>
                </g>
            </g>
        </g>
    </g>
</svg>

<svg width="66" height="58" xmlns="http://www.w3.org/2000/svg"><g fill="none" fill-rule="evenodd"><path d="M65.844 0c-2.548 5.157-6.36 7.998-11.436 8.522l-.312.029c-3.775.316-6.675 1.202-8.701 2.658 1.781 2.061 1.822 4.58 1.036 6.078l-.074.133-9.227 16.067a4.8 4.8 0 01-8.194.165l-.099-.161-9.244-16.065c-.846-1.45-.71-3.99 1.024-6.092-1.959-1.476-4.778-2.391-8.457-2.746l-.412-.037C6.516 8.113 2.6 5.262 0 0c3.073 2.798 6.274 4.62 9.604 5.465 4.44 1.128 9.562-.752 15.953 2.883 4.878-1.504 9.582-1.51 14.748-.01 6.383-3.622 11.499-1.746 15.935-2.873 3.33-.846 6.53-2.667 9.604-5.465z" fill="#026CFF"/><path d="M12.656 57l.768-2.304h3.988l.78 2.304h2.656l-3.776-10.672H14.24L10.208 57h2.448zm4.111-4.208h-2.708l1.343-4.031 1.365 4.031zm9.158 4.448c1.141 0 2.042-.267 2.704-.8.661-.533.992-1.376.992-2.528v-5.008h-2.24v4.816c0 .512-.112.893-.336 1.144-.224.25-.592.376-1.104.376-.502 0-.867-.125-1.096-.376-.23-.25-.344-.632-.344-1.144v-4.816h-2.384v5.008c0 .779.16 1.41.48 1.896.32.485.768.845 1.344 1.08.576.235 1.237.352 1.984.352zm8.193-.24v-6.256a5.14 5.14 0 01.672-.064 14.697 14.697 0 011.712.032c.278.021.507.053.688.096v-1.744c-.149-.117-.368-.213-.656-.288-.288-.075-.682-.112-1.184-.112-.5 0-1 .067-1.496.2a9.756 9.756 0 00-1.32.448c-.384.165-.65.312-.8.44V57h2.384zm7.842.24c1.333 0 2.357-.365 3.072-1.096.715-.73 1.072-1.805 1.072-3.224 0-.992-.157-1.803-.472-2.432a3.027 3.027 0 00-1.392-1.4c-.613-.304-1.373-.456-2.28-.456-1.344 0-2.365.333-3.064 1-.699.667-1.048 1.763-1.048 3.288 0 1.419.344 2.493 1.032 3.224.688.73 1.715 1.096 3.08 1.096zm0-1.904c-.597 0-1.037-.2-1.32-.6-.283-.4-.424-1.005-.424-1.816 0-.587.061-1.053.184-1.4s.312-.6.568-.76c.256-.16.587-.24.992-.24.384 0 .71.077.976.232.267.155.467.405.6.752.133.347.2.819.2 1.416 0 .523-.067.963-.2 1.32-.133.357-.33.63-.592.816-.261.187-.59.28-.984.28zM49.144 57l1.636-2.394L52.488 57h2.832l-2.928-4.092 3.056-4.004H52.92l-1.66 2.42-1.732-2.42h-2.816l2.949 4.133L46.632 57h2.512z" fill="#001C55"/></g></svg>
